X:1
T:Wenn ich gedenck
T:Gemignano Capilupi
T:Source : Canzonette mit 3 Stimmen/ H.Vecchi und G.Capilupi---Nürnberg---P.Kauffmann---1606. Editor : André Vierendeels (25/02/17).
T:Notes : Original clefs : G2, G2, C4 Editorial accidentals above the staff Text Middle German by Valentin Hauszmann German Contrafactum of "Pur che mas" 1597 m 11 in S2: first "E" notated as "D" in original print 
T:Wenn ich gedenck
T:©
T:©
T:©
T:©
C:Gemignano Capilupi
Z:©
%%score [ 1 2 3 ]
L:1/8
Q:1/4=120
M:4/4
K:C
V:1 treble nm="Soprano 1" snm="S 1"
V:2 treble nm="Soprano 2" snm="S 2"
V:3 treble-8 nm="Tenor" snm="T"
V:1
"^1)" z4 e2 f2 | g2 f4 a2 | g4 g2 c2 | d2 e2 f2 g2 | a4 g2 c2 | d2 e2 f2 ed | edcB AB c2- | %7
w: Wenn ich|ge- denck der|stun- den, da|ich eur kunth- schafft|g'fun- den, da|ich eur kunth- * *||
w: Wenn ich|euch seh von|fe- ren, gleich|als ein hel- len|Ste- ren, mag|ich wol sa- * *||
 c2 d2 B4 | A8 ::[M:6/4] e2 e2 f2 e4 e2 | e2 e2 f2 g4 g2 | a3 a a2 g2 e4 |[M:4/4] d2 A2 A2 A2 | %13
w: * schafft, fun-|den,|dünckt mich auff Er- den,|dünckt mich auff Er- den|lieb- li- cher ge- ber-|den, bey Weib- lich'r|
w: |gen,|das bey all mein ta-|gen, das bey all mein|ta- gen eurs glei- chen|ich hab kön- nen|
 d6 d2 | c2 A2 c2 d2 | e8 | d4 f4 | e6 d2 | B2 A2 B4 | A4 e4 | f4 f4 | e2 d2 c2 BA | G4 c4 | %23
w: art mögn|nicht ge- spü- ret|wer-|den, mögn|nicht ge-|spü- ret wer-|den, bey|Weib- lichr|art _ _ _ _|_ mögn|
w: _ nie|er- fra- * *||ge,n, nie|er _|_ _ fra-|gen, eurs|glei- chen|ich hab kön- * *|nen nie|
 B2 A2 d4- | d2 c2 B4 | A8 :| %26
w: nicht ge- spü-|* ret wer-|den.|
w: er- fra- *||gen.|
V:2
"^2)""^1)" z4 ^c2 d2 |"^-natural" e2 c4 f2 | e4 e4 | z2 c2 d2 e2 | f4 e4 | z2 G2 A2 B2 | %6
w: Wenn ich|ge- denck der|stun- den,|da ich eur|kunth- schafft,|da ich eur|
w: Wenn ich|eur gunst be-|trach- te,|eur gunst be-|trach- te,|die ich ge-|
 c2 e2 d2 cB | A3 B ^G4 | A8 ::[M:6/4] ^c2 c2 d2 c4 c2 | ^c2 c2 d2 e4 e2 | f3 f f2 d2 ^c4 | %12
w: kunth- schafft g'fun- * *||den,|dünckt mich auff Er- den,|dünckt mich auff Er- den|lieb- li- cher ge- ber-|
w: ring nicht ach- * *||te,|mein g'müth sich schwin- get,|mein g'müth sich schwin- get,|und für freu- den sin-|
[M:4/4] d8 | z2 D2 D2 D2 | A6 B2 | c2 A2 c2 c2 | B4 A2 A2 | c6 A2 | ^G2 A4 G2 | A2 A2 A2 A2 | %20
w: den,|bey weib- lich'r|art mögn|nicht ge- spü- ret|wer- den, mögn|nicht ge|spü- ret wer-|den, bey weib- lich'r|
w: get,|und für freu-|den sin-|get, für freu- den|sin- get, für|freu- den|sin- * *|get, O tau- send|
 d6 d2 | c2 A2 c2 d2 | e4 e2 e2 | d2 c2 B2 A2 | ^G2 A4 G2 | A8 :| %26
w: art mögn|nicht ge- spü- ret|wer- den, mögn|nicht ge- spü- ret|we- * *|den.|
w: schatz al-|so mein Hertz ihr|swin- get, al-|so mein Hertz ihr|swin- * *|get.|
V:3
"^3)""^1)" z4 A2 d2 |"^-natural" c2 F4 F2 | c4 c4 | z2 c2 _B2 G2 | FGAB c2 A2 | G2 FE D4 | %6
w: Wenn ich|ge- denck der|stun- den,|da ich eur|kunth- * * * * schafft|g'fun- * * *|
 A2 c2 d2 e2 | f2 d2 e4 | A8 ::[M:6/4] A2 A2 D2 A4 A2 |"^-natural" A2 A2 d2 c4 c2 | F3 F F2 G2 A4 | %12
w: den, da ich euch|kunth- schafft g'fun-|den,|dünckt mich auff Er- den,|dünckt mich auff Er- den|lieb- li- cher ge- ber|
[M:4/4] D8 | z8 | z8 | A4 A2 A2 | d6 d2 | c2 A2 c2 d2 | e8 | A8 | z2 D2 D2 D2 | A6 B2 | c4 C4 | %23
w: den,|||bey weib- lich'r|art mögn|nicht ge spü- ret|wer-|den,|weib- lichr art|m mögn|nicht ge-|
 D4 D4 | E8 | A8 :| %26
w: spü- ret|wer-|den.|

